X:231
T:Ship in Full Sail, The
R:jig
H:Also in A, see #33
D:Matt Molloy: Heathery Breeze
Z:id:hn-jig-231
M:6/8
K:G
DGG BAG|dBG Bdd|ege dBG|ABA AGE|
DEG BAG|dBG GBd|ege dBG|ABA G3:|
|:dgg bgg|aga bge|dgg bag|aba age|
dgg bgg|aga bgd|ege dBG|ABA G3:|
